X:1
T:Adapted from Philip Doddridge, 1755 by William Bentley, 1788 10 10. 11 11.
T:C Major Oliver Holden, 1800
T:Stone Chapel No copyright. Transcribed from Plain Psalmody, 1800.
%%score [ 1 2 3 4 ]
L:1/8
M:4/4
K:C
V:1 treble nm="Treble" snm="Tr."
V:2 treble nm="Counter" snm="C."
V:3 treble-8 nm="Tenor" snm="T."
V:4 bass nm="Bass" snm="B."
V:1
 c4 | (G2 B2) d2 B2 | c6 d2 | (e2 d2) c2 B2 | c6 c2 | (d2 c2) d2 e2 | d6 d2 | (e2 d2) e2 f2 | %8
w: 1.~O|praise * ye the|Lord, pre-|pare * a new|song; And|let * all His|saints in||
w: 2.~Let|praise * to the|Lord, who|made * us as-|cend, Let|each * grate- ful|heart be||
 e6 d2 | (c2 B2) c2 d2 | (c2 B2) c2 d2 | (e2 d2) e2 f2 | e6 e2 | (f2 e2) d2 c2 | B4 G2 c2 | %15
w: |||||||
w: |||||||
 d4 d2 d2 | d6 B2 | (c2 B2) c2 d2 | (c2 e2) f2 d2 | (g2 f2) e2 d2 | c8 |] %21
w: ||||||
w: ||||||
V:2
 E4 | G4 G2 G2 | G6 z2 | z8 | z8 | z8 | z4 z2 G2 | G4 G2 G2 | G6 G2 | G4 G2 G2 | G4 G2 G2 | %11
w: |||||||full con- cert|join; With|voi- ces u-|ni- ted the|
w: |||||||glad in its|King; For|God, whom we|wor- ship, our|
 G4 G2 G2 | G6 G2 | G4 G2 G2 | G4 G2 G2 | G4 G2 G2 | G6 G2 | G4 G2 G2 | G4 F2 A2 | G4 G2 F2 | E8 |] %21
w: an- them pro-|long, And|shout forth His|hon- ors in|mu- sic di-|vine, And|shout forth His|ho- nors in|mu- sic di-|vine.|
w: songs will at-|tend, And|view with com-|pla- cence the|off- 'ring we|bring, And|view with com-|pla- cence the|off- 'ring we|bring.|
V:3
 G4 | (c2 d2) B2 d2 | e6 B2 | (c2 B2) c2 d2 | e6 c2 | (B2 A2) B2 c2 | B6 B2 | (c2 B2) c2 d2 | %8
w: 3.~Be|joy- * ful, ye|saints, sus-|tained * by His|might, And|let * your glad|songs a-|wake * with each|
w: 4.~O|praise * ye the|Lord, pre-|pare * a glad|song, And|let * all His|saints in|full * cho- rus|
 c6 B2 | (c2 d2) e2 f2 | (e2 d2) e2 f2 | (e2 f2) c2 d2 | c6 c2 | (d2 c2) B2 c2 | d4 d2 e2 | %15
w: morn, For|those * who o-|bey * Him are|still * His de-|light; His|hand * with sal-|va- tion the|
w: join; With|voi- * ces u-|ni- * ted the|an- * them pro-|long, And|show * forth His|prai- ses with|
 d2 c2 B2 B2 | B6 d2 | (e2 d2) e2 f2 | (e2 c2) d2 e2 | (e2 d2) c2 B2 | c8 |] %21
w: meek * will a-|dorn, His|hand * with sal-|va- * tion the|meek * will a-|dorn.|
w: mu- * sic di-|vine, And|show * forth His|prai- * ses with|mu- * sic di-|vine.|
V:4
 C,4 | G,4 G,2 G,2 | C,6 z2 | z8 | z8 | z8 | z4 z2 G,2 | G,4 G,2 G,2 | C6 G,2 | (E,2 D,2) C,2 G,2 | %10
 (E,2 D,2) C,2 G,2 | (C2 B,2) C2 G,2 | C6 C,2 | G,4 G,2 C2 | G,4 G,2 G,2 | G,4 G,2 G,2 | G,6 G,2 | %17
 (E,2 D,2) C,2 G,2 | C4 F,2 F,2 | G,4 G,2 G,2 | C,8 |] %21

